symbols/web/thumbs_up_down/materialsymbolsoutlined/thumbs_up_down_wght500gradN25_20px.svg

<svg xmlns="http://www.w3.org/2000/svg" height="20" width="20"><path d="M2.021 11.792q-.75 0-1.281-.521Q.208 10.75.208 10V5.292q0-.292.125-.563.125-.271.313-.479L4.708.188l.667.687q.167.146.229.333.063.188.063.417v.125l-.5 2.583h4.062q.354 0 .625.25t.271.625v1.084q0 .166-.042.312-.041.146-.083.271l-1.729 4.083q-.188.417-.563.625-.375.209-.854.209ZM6.708 10l1.625-3.792v-.083H3.104l.417-2.208L2 5.417V10Zm8.604 9.771-.666-.688q-.167-.145-.229-.343-.063-.198-.063-.386v-.146l.5-2.562h-4.062q-.354 0-.625-.261-.271-.26-.271-.635v-1.083q0-.167.031-.302.031-.136.094-.261L11.75 9q.167-.417.542-.625.375-.208.875-.208H18q.75 0 1.271.521.521.52.521 1.27v4.75q0 .271-.115.532-.115.26-.302.468Zm-2-9.813-1.624 3.792v.104h5.229l-.417 2.188 1.5-1.5V9.958ZM2 9.979V5.417v4.562Zm16 0v4.563-4.563Z"/></svg>

<svg xmlns="http://www.w3.org/2000/svg" height="20" width="20"><path d="M2.021 11.792Q1.271 11.792 0.74 11.271Q0.208 10.75 0.208 10V5.292Q0.208 5 0.333 4.729Q0.458 4.458 0.646 4.25L4.708 0.188L5.375 0.875Q5.542 1.021 5.604 1.208Q5.667 1.396 5.667 1.625V1.75L5.167 4.333H9.229Q9.583 4.333 9.854 4.583Q10.125 4.833 10.125 5.208V6.292Q10.125 6.458 10.083 6.604Q10.042 6.75 10 6.875L8.271 10.958Q8.083 11.375 7.708 11.583Q7.333 11.792 6.854 11.792ZM6.708 10 8.333 6.208V6.125Q8.333 6.125 8.333 6.125Q8.333 6.125 8.333 6.125H3.104L3.521 3.917L2 5.417V10Q2 10 2 10Q2 10 2 10ZM15.312 19.771 14.646 19.083Q14.479 18.938 14.417 18.74Q14.354 18.542 14.354 18.354V18.208L14.854 15.646H10.792Q10.438 15.646 10.167 15.385Q9.896 15.125 9.896 14.75V13.667Q9.896 13.5 9.927 13.365Q9.958 13.229 10.021 13.104L11.75 9Q11.917 8.583 12.292 8.375Q12.667 8.167 13.167 8.167H18Q18.75 8.167 19.271 8.688Q19.792 9.208 19.792 9.958V14.708Q19.792 14.979 19.677 15.24Q19.562 15.5 19.375 15.708ZM13.312 9.958 11.688 13.75V13.854Q11.688 13.854 11.688 13.854Q11.688 13.854 11.688 13.854H16.917L16.5 16.042L18 14.542V9.958Q18 9.958 18 9.958Q18 9.958 18 9.958ZM2 9.979V5.417V6.104Q2 6.104 2 6.104Q2 6.104 2 6.104V6.125V9.979Q2 9.979 2 9.979Q2 9.979 2 9.979ZM18 9.979V14.542V13.854Q18 13.854 18 13.854Q18 13.854 18 13.854V13.833V9.979Q18 9.979 18 9.979Q18 9.979 18 9.979Z"/></svg>
